icons/glyphs/glyph-leocad.svg

<?xml version="1.0" encoding="UTF-8" standalone="no"?><svg height="16" viewBox="0 0 4.2333332 4.2333332" width="16" xmlns="http://www.w3.org/2000/svg"><sodipodi:namedview/><metadata><rdf:RDF><cc:Work><dc:format>image/svg+xml</dc:format><dc:type/><dc:title/></cc:Work></rdf:RDF></metadata><path d="m2.1381512 0c-.2150427 0-.3771409.092762-.3772679.2156566v.1561389c-.00327.0000749-.00668.00114-.0098.0026l-.2437142.1245175c-.010437.00536-.019117.0127-.026284.020918-.061747-.025149-.1378281-.040093-.2229656-.040093-.2149157 0-.37701391.092515-.37701391.215409v.1329792c-.0135791.0003257-.0271632.00287-.0397398.0097l-.46542293.2502723c-.016103.0086-.0269127.022039-.0348339.03698-.002263.00337-.003663.00659-.005406.010209-.001465.00423-.002524.00834-.003386.0127-.002524.00821-.006675.015941-.006675.024779v2.0286925c0 .03175.0173535.061134.0453978.076822l1.69254484.9433122c.00114.0006523.00252.0004885.00365.00114.011463.00573.023766.00897.036342.00946.0000765 0 .00239.00114.00365.00114.011186 0 .021504-.00474.03194-.00871.00378-.00146.00817-.0008123.011821-.00285l.0004884-.0003257c.0003256-.0000146.0004885-.0000146.0008124-.0003256.0003256-.000013.0003256-.0004885.0004884-.0004885l1.7077564-.9494205c.028169-.015566.045398-.045075.045398-.076825l.00176-2.017733c0-.031254-.016599-.060389-.044014-.076077-.0029-.00174-.00655-.0013-.00956-.00262-.00402-.00311-.00692-.00697-.01156-.00944l-.4656727-.250279c-.002-.00114-.00415-.0009784-.00617-.00199v-.142315c0-.1230196-.1620998-.2156583-.3770156-.2156583-.091299 0-.1719065.017308-.2357926.045946-.00439-.00348-.00804-.00772-.013205-.010469l-.2215742-.1133706c-.00252-.0000733-.00527-.00114-.00791-.00223v-.1824124c0-.1230195-.1620982-.2156566-.3770155-.2156566m-.3773948.5679022v.057901c0 .1228941.1622252.2154074.3772663.2154074.215168 0 .3771409-.092513.3770155-.2154074v-.03113l.1082761.05541c-.00466.014068-.00716.028637-.00716.043828v.410021c0 .1228941.1622252.2154074.3772663.2154074.2150444 0 .3771409-.092513.3770156-.2154074v-.068608l.2640862.1423203-1.5270487.846564-1.51409802-.8519192.28810546-.1551424v.08828c0 .1228941.16209986.2156565.37701556.2156565.2149174 0 .3770155-.092762.3770155-.2156565v-.410021c0-.019799-.00554-.038475-.013449-.056405l.1392077-.0709733m.3716066.3828497c-.2149174 0-.3772679.092762-.3772679.2156565v.410021c0 .1228942.1623505.2156582.3772679.2156582.2149157 0 .3767648-.092764.3767648-.2156582v-.410021c0-.1228941-.1618491-.2156565-.3767648-.2156565" fill="#d0d0d0" stroke-width=".264583"/></svg>

<?xml version="1.0" encoding="UTF-8" standalone="no"?>
<!-- Created with Inkscape (http://www.inkscape.org/) -->

<svg
   xmlns:dc="http://purl.org/dc/elements/1.1/"
   xmlns:cc="http://creativecommons.org/ns#"
   xmlns:rdf="http://www.w3.org/1999/02/22-rdf-syntax-ns#"
   xmlns:svg="http://www.w3.org/2000/svg"
   xmlns="http://www.w3.org/2000/svg"
   xmlns:sodipodi="http://sodipodi.sourceforge.net/DTD/sodipodi-0.dtd"
   xmlns:inkscape="http://www.inkscape.org/namespaces/inkscape"
   width="16"
   height="16"
   viewBox="0 0 4.2333332 4.2333332"
   version="1.1"
   id="svg8"
   inkscape:version="0.92+devel (f96dc7e339, 2017-07-28, custom)"
   sodipodi:docname="glyph-leocad.svg">
  <defs
     id="defs2">
    <linearGradient
       id="1"
       x1="24.139999"
       y1="40.682999"
       x2="23.860001"
       y2="6.3099999"
       gradientUnits="userSpaceOnUse"
       gradientTransform="matrix(0.12575563,0,0,0.12451304,-0.90136247,-0.8715897)">
      <stop
         stop-color="#c52828"
         id="stop2" />
      <stop
         stop-color="#ff5454"
         offset="1"
         id="stop4" />
    </linearGradient>
  </defs>
  <sodipodi:namedview
     id="base"
     pagecolor="#002466"
     bordercolor="#ffffff"
     borderopacity="0.38039216"
     inkscape:pageopacity="1"
     inkscape:pageshadow="2"
     inkscape:zoom="36.415999"
     inkscape:cx="10.094581"
     inkscape:cy="7.9162778"
     inkscape:document-units="px"
     inkscape:current-layer="svg8"
     inkscape:document-rotation="0"
     showgrid="false"
     inkscape:showpageshadow="false"
     borderlayer="true"
     inkscape:window-width="1920"
     inkscape:window-height="1051"
     inkscape:window-x="0"
     inkscape:window-y="0"
     inkscape:window-maximized="1"
     units="px" />
  <metadata
     id="metadata5">
    <rdf:RDF>
      <cc:Work
         rdf:about="">
        <dc:format>image/svg+xml</dc:format>
        <dc:type
           rdf:resource="http://purl.org/dc/dcmitype/StillImage" />
        <dc:title></dc:title>
      </cc:Work>
    </rdf:RDF>
  </metadata>
  <path
     d="M 2.1381512,0 C 1.9231085,0 1.7610103,0.092762 1.7608833,0.2156566 v 0.1561389 c -0.00327,7.49e-5 -0.00668,0.00114 -0.0098,0.0026 L 1.5073691,0.498913 c -0.010437,0.00536 -0.019117,0.0127 -0.026284,0.020918 C 1.4193381,0.494682 1.343257,0.479738 1.2581195,0.479738 c -0.2149157,0 -0.37701391,0.092515 -0.37701391,0.215409 v 0.1329792 c -0.0135791,3.257e-4 -0.0271632,0.00287 -0.0397398,0.0097 L 0.37594286,1.0880985 c -0.016103,0.0086 -0.0269127,0.022039 -0.0348339,0.03698 -0.002263,0.00337 -0.003663,0.00659 -0.005406,0.010209 -0.001465,0.00423 -0.002524,0.00834 -0.003386,0.0127 -0.002524,0.00821 -0.006675,0.015941 -0.006675,0.024779 V 3.201459 c 0,0.03175 0.0173535,0.061134 0.0453978,0.076822 L 2.0635846,4.2215932 c 0.00114,6.523e-4 0.00252,4.885e-4 0.00365,0.00114 0.011463,0.00573 0.023766,0.00897 0.036342,0.00946 7.65e-5,0 0.00239,0.00114 0.00365,0.00114 0.011186,0 0.021504,-0.00474 0.03194,-0.00871 0.00378,-0.00146 0.00817,-8.123e-4 0.011821,-0.00285 l 4.884e-4,-3.257e-4 c 3.256e-4,-1.46e-5 4.885e-4,-1.46e-5 8.124e-4,-3.256e-4 3.256e-4,-1.3e-5 3.256e-4,-4.885e-4 4.884e-4,-4.885e-4 L 3.8605332,3.2712129 c 0.028169,-0.015566 0.045398,-0.045075 0.045398,-0.076825 l 0.00176,-2.017733 c 0,-0.031254 -0.016599,-0.060389 -0.044014,-0.076077 -0.0029,-0.00174 -0.00655,-0.0013 -0.00956,-0.00262 -0.00402,-0.00311 -0.00692,-0.00697 -0.01156,-0.00944 L 3.3768845,0.8382389 c -0.002,-0.00114 -0.00415,-9.784e-4 -0.00617,-0.00199 v -0.142315 c 0,-0.1230196 -0.1620998,-0.2156583 -0.3770156,-0.2156583 -0.091299,0 -0.1719065,0.017308 -0.2357926,0.045946 -0.00439,-0.00348 -0.00804,-0.00772 -0.013205,-0.010469 L 2.5231271,0.400382 c -0.00252,-7.33e-5 -0.00527,-0.00114 -0.00791,-0.00223 V 0.2157396 C 2.5152171,0.0927201 2.3531189,8.3e-5 2.1382016,8.3e-5 M 1.7608068,0.5679852 v 0.057901 c 0,0.1228941 0.1622252,0.2154074 0.3772663,0.2154074 0.215168,0 0.3771409,-0.092513 0.3770155,-0.2154074 v -0.03113 l 0.1082761,0.05541 c -0.00466,0.014068 -0.00716,0.028637 -0.00716,0.043828 v 0.410021 c 0,0.1228941 0.1622252,0.2154074 0.3772663,0.2154074 0.2150444,0 0.3771409,-0.092513 0.3770156,-0.2154074 V 1.0354072 L 3.6345728,1.1777275 2.1075241,2.0242915 0.59342608,1.1723723 0.88153154,1.0172299 v 0.08828 c 0,0.1228941 0.16209986,0.2156565 0.37701556,0.2156565 0.2149174,0 0.3770155,-0.092762 0.3770155,-0.2156565 v -0.410021 c 0,-0.019799 -0.00554,-0.038475 -0.013449,-0.056405 L 1.7613213,0.5681106 m 0.3716066,0.3828497 c -0.2149174,0 -0.3772679,0.092762 -0.3772679,0.2156565 v 0.410021 c 0,0.1228942 0.1623505,0.2156582 0.3772679,0.2156582 0.2149157,0 0.3767648,-0.092764 0.3767648,-0.2156582 v -0.410021 c 0,-0.1228941 -0.1618491,-0.2156565 -0.3767648,-0.2156565"
     style="fill:#d0d0d0;stroke-width:0.26458332"
     id="path19"
     inkscape:connector-curvature="0"
     sodipodi:nodetypes="ccccccssccccccssccccscccccccccccccssccccsccsscccsssccccccsssscccsssssc"
     inkscape:label="#" />
</svg>
